icons/svg/icons8/tomato.svg

<svg width="26" height="26" viewBox="0 0 26 26" fill="none" xmlns="http://www.w3.org/2000/svg">
<g clip-path="url(#clip0)">
<path d="M12.9979 4.12499C12.9909 4.12499 12.9839 4.12199 12.9779 4.12199C12.9509 4.12199 12.9239 4.13199 12.8979 4.13799C12.9319 4.12999 12.9639 4.12299 12.9979 4.12499Z" fill="#333333"/>
<path d="M21.004 4.281C21.066 4.998 19.728 5.803 19.023 5.834C19.783 6.024 20.915 7.198 21.895 6.853C21.835 7.565 21.296 8.78899 20.647 9.23499C19.545 9.99499 17.399 9.97099 16.388 8.95899C16.313 9.57099 16.449 12.505 14.86 13.46C12.062 12.755 11.734 10.601 11.302 9.449C10.648 9.696 9.814 10.03 9.066 10.093C6.046 10.345 4.291 8.518 4.377 7.641C5.51 7.305 7.438 6.359 7.922 5.203C7.422 5.031 6.645 4.639 6.645 3.689C1.557 4.854 0 8.78199 0 13.69C0 20.127 5.818 26 13.001 26C19.359 26 26 21.709 26 12.393C26 8.51799 24.682 5.547 21.004 4.281Z" fill="#333333"/>
<path d="M12.3958 4.84799C12.3788 4.96299 12.6318 5.40299 13.4518 5.40299C14.4308 5.40299 14.0548 4.92499 14.0548 4.92499C14.0548 4.92499 13.9648 2.16799 16.0158 0.343992C15.4958 -0.0790076 14.9478 0.146992 14.9478 0.146992C14.9478 0.146992 12.7568 2.35799 12.3958 4.84799Z" fill="#333333"/>
<path d="M14.554 11.654C15.339 9.128 14.929 7.314 13.796 5.143C15.346 7.131 17.766 9.512 20.524 7.765C18.313 7.187 18.672 5.594 15.926 5.118C17.986 5.204 18.894 5.748 20.303 2.983C18.085 4.131 16.833 1.861 14.089 4.295C13.604 4.591 13.092 3.837 12.701 4.245C10.622 0.842998 8.06305 3.706 7.05405 1.101C7.05405 5.106 11.062 4.165 12.007 4.828C8.32905 4.523 8.91805 7.48 6.24805 8.014C9.65205 9.416 11.722 7.881 12.644 5.403C12.499 6.372 11.391 9.754 14.554 11.654Z" fill="#333333"/>
</g>
<defs>
<clipPath id="clip0">
<rect width="26" height="26" fill="white"/>
</clipPath>
</defs>
</svg>

<?xml version="1.0" encoding="utf-8"?>
<!-- Generator: Adobe Illustrator 16.0.0, SVG Export Plug-In . SVG Version: 6.00 Build 0)  -->
<!DOCTYPE svg PUBLIC "-//W3C//DTD SVG 1.1//EN" "http://www.w3.org/Graphics/SVG/1.1/DTD/svg11.dtd">
<svg version="1.1" id="Layer_1" xmlns="http://www.w3.org/2000/svg" xmlns:xlink="http://www.w3.org/1999/xlink" x="0px" y="0px"
	 width="26px" height="26px" viewBox="0 0 26 26" enable-background="new 0 0 26 26" xml:space="preserve">
<rect fill="none" width="26" height="26"/>
<g>
	<path fill="#333333" d="M12.998,4.125c-0.007,0-0.014-0.003-0.02-0.003c-0.027,0-0.054,0.01-0.08,0.016
		C12.932,4.13,12.964,4.123,12.998,4.125z"/>
	<path fill="#333333" d="M21.004,4.281c0.062,0.717-1.276,1.522-1.981,1.553c0.76,0.19,1.892,1.364,2.872,1.019
		c-0.06,0.712-0.599,1.936-1.248,2.382c-1.102,0.76-3.248,0.736-4.259-0.276c-0.075,0.612,0.061,3.546-1.528,4.501
		c-2.798-0.705-3.126-2.859-3.558-4.011c-0.654,0.247-1.488,0.581-2.236,0.644c-3.02,0.252-4.775-1.575-4.689-2.452
		C5.51,7.305,7.438,6.359,7.922,5.203c-0.5-0.172-1.277-0.564-1.277-1.514C1.557,4.854,0,8.782,0,13.69C0,20.127,5.818,26,13.001,26
		C19.359,26,26,21.709,26,12.393C26,8.518,24.682,5.547,21.004,4.281z"/>
</g>
<path fill="#333333" d="M12.396,4.848c-0.017,0.115,0.236,0.555,1.056,0.555c0.979,0,0.603-0.478,0.603-0.478
	s-0.09-2.757,1.961-4.581c-0.52-0.423-1.068-0.197-1.068-0.197S12.757,2.358,12.396,4.848z"/>
<g>
	<path fill="#333333" d="M14.554,11.654c0.785-2.526,0.375-4.34-0.758-6.511c1.55,1.988,3.97,4.369,6.728,2.622
		c-2.211-0.578-1.852-2.171-4.598-2.647c2.06,0.086,2.968,0.63,4.377-2.135c-2.218,1.148-3.47-1.122-6.214,1.312
		c-0.485,0.296-0.997-0.458-1.388-0.05c-2.079-3.402-4.638-0.539-5.647-3.144c0,4.005,4.008,3.064,4.953,3.727
		C8.329,4.523,8.918,7.48,6.248,8.014c3.404,1.402,5.474-0.133,6.396-2.611C12.499,6.372,11.391,9.754,14.554,11.654z"/>
</g>
</svg>
